X:1
T:SPASMODIC
T:Tom Brier https://musescore.com/user/30107323/scores/5287813 Transcribed from: https://www.youtube.com/watch?v=887A4eFbPkw https://www.youtube.com/watch?v=xlYYjsfrX5Y https://www.youtube.com/watch?v=mwo1PHJJjCw
T:Spasmodic
C:Tom Brier
%%score { ( 1 2 4 ) | 3 }
L:1/8
Q:1/2=120
M:4/4
K:D
V:1 treble nm="Piano" snm="Pno."
V:2 treble 
V:4 treble 
V:3 bass 
V:1
"^Allegro""^Swing 8ths."!8va(! z [d'b'].[^e'd''] z [f'b'].[d'a'] z .[af']!8va)! | %1
 z [db].[^ed'] z [fb].[da] z d | [_A=f]ed [Af]ed [Af]d | [Aca]4!8va(! [ac'e'a']4!8va)! |: %4
 [cf]2 z2 [cf]2 z2 | [cf]2 x2 [Gcfa] [Gcfa]2 d | [fb]2 z2 [fb]2 z2 | [fb]2 x2 [dfad']ABd | %8
 [cf]2 z2 [cf]2 z2 | [cf]2 x2 [Gcfa][=Be][cf]a | [^eb]2 d'[fb]- [fb] a [df]2 | %11
 f [^Ge]2 f [=Ge]2 [ca]2 | [cf]2 z2 [cf]2 z2 | [cf]2 x2 [Gcfa] [Gcfa]2 d | [fb]2 z2 [fb]2 z2 | %15
 [fb]2 x2 [dfad'][=ea]bd' | [g_be']2 [gbd']2 [db] [_Bg]2 [df=b]- | [dfb] [dfa]2 f ABde | %18
 [cf]2 z2 b2 x2 |1 [dfad']a [^efb]2 a [efb]2 a :|2 [dfad']4!8va(! [d'f'a'd'']4!8va)! |: %21
 B2 B2- B B3 | [FA]DFA d [DFB]2 ^B | cAce f [Gce]2 ^e | fdfa b [=cdfa]2 z | B2 B2- B B3 | %26
 [FA]DFA d [DFB]2 ^B | cf^g^a c' [c^eg]2 [cfac']- | [cfac']^af[eg=ac']- [egac']b [cga]2 | %29
 b2 b2- b b3 | [fa]d'f[db]- [db]afd | c[gb]c[ga]- [ga]ge^e | f [=cb]2 [ca] fedB- | =fedB fedA | %34
 fedA- [^df] [dfb]3 | [df] [dfb]2 [ca]- [ca]^e [cf]2 |1 [Fd]AB[=CFA]- [CFA]F D2 :|2 %37
 [Fd]2 [A,^B,FA][A,B,FA]- [A,B,FA][A,B,FA] [A,B,FA]2 || [cf]2 z2 [cf]2 z2 | %39
 [cf]2 x2 [Gcfa] [Gcfa]2 d | [fb]2 z2 [fb]2 z2 | [fb]2 x2 [dfad']ABd | [cf]2 z2 [cf]2 z2 | %43
 [cf]2 x2 [Gcfa][=Be][cf]a | [^eb]2 d'[fb]- [fb] a [df]2 | f [^Ge]2 f [=Ge]2 [ca]2 | %46
 [cf]2 z2 [cf]2 z2 | [cf]2 x2 [Gcfa] [Gcfa]2 d | [fb]2 z2 [fb]2 z2 | [fb]2 x2 [dfad'][=ea]bd' | %50
 [g_be']2 [gbd']2 [db] [_Bg]2 [df=b]- | [dfb] [dfa]2 f ABde | [cf]2 z2 b2 x2 | %53
 [dfad']4!8va(! [d'f'a'd'']4!8va)! ||[K:G] z ^C [^E^GB^c]2 D [FA=cd]2 ^D | %55
 [^^F^A^c^d]2 E[^GB=de]- [GBde] =F [=A=c_e=f]2 | F [^A^cef]2 =G [Bd=fg]^G [Bd^g]2 | %57
 [Acdfa]4 [dfad']4 ||S [Be][Ad]G[Be] [Ad]G[Be][Ad] | G[Be][Ad]G [Be][Ad]G z | %60
 [^cf][Be]G[cf] [Be]G[cf][Be] | G[^cf][Be]G [cf][Be]G z | [fb][ea]c[fb] [ea]c[fb][ea] | %63
 c[fb][ea]c [fb][ea]cd | [Be]de[B=f]- [Bf] [^GBd]2 [Ace]- | [Ace] [Aceg]2 [Adfa]- [Adfa] [dfad']3 | %66
 [Be][Ad]G[Be] [Ad]G[Be][Ad] | G[Be][Ad]G [Be][Ad]G z | [fb][ea]d[fb] [ea]d[fb][ea] | %69
 d[fb][ea]d [fb][ea]d z | [G^cf][Gce] z2 [cgb][cga] z2 | [G^cf][Gce] z [cgb]- [cgb]a [cgb]2 | %72
 [dfad']2 [D^E^Gd][DEGd]- [DEGd][DEGd] [DEGd]2 | [DFAd]2 z2 [dfad']4 | %74
 [Be][Ad]G[Be] [Ad]G[Be][Ad] | G[Be][Ad]G [Be][Ad]G z | [^cf][Be]G[cf] [Be]G[cf][Be] | %77
 G[^cf][Be]G [cf][Be]G z | [fb][ea]c[fb] [ea]c[fb][ea] | c[fb][ea]f [Ada]2 [^A^a][B^dfb]- | %80
 [Bdfb]2 z2 [A,^DF]3 [DFAB]- | [DFAB]2 [B^dfb]2 [^A^a] [Bb]2 ^g- | %82
 [cegc'] [Bb]2 [^GBe^g]- [GBeg] [Ee]2 [cegc']- | [cegc'] [Bb]2 [^GBe^g]- [GBeg] [Ee]2 [B^ceb]- | %84
 [Bceb] [Aa]2 [G^ceg]- [Gceg] [Ee]2 [Bceb]- | [Bceb] [Aa]2 [G^A^cg]- [GAcg][Ff] [Ee]2 | %86
 [DGBd] [Ee]2 [GBdg]- [GBdg] [Bb]2 [dfad']- | [dfad'] [_d_d']2 [cfac']- [cfac'][Bb] [Aa]2!dacoda! | %88
 [GBdg]2 [A_Be]2 d [ABe]2 d | [GBg]2 z2!8va(! [gbd'g']4!8va)! || ^c^d[fb]c d[fa]cd | %91
 [fb]^c^d[fa] cd[fb] z | z F[^GBdf] z E[GBde] z F | [^GBdf] z E[GBde] z F[GBdf] z | %94
 [fa]e^c[fa] ec[fa]e | ^c[fa]ec [fa]ec z | z E[FAce] z D[FAcd] z E | [FAce] z D[FAcd] z E[FAce] z | %98
 z ^C [^E^GB^c]2 D [FA=cd]2 ^D | [^^F^A^c^d]2 E[^GB=de]- [GBde] =F [=A=c_e=f]2 | %100
 F [^A^cef]2 G [Bd=fg]^G [Bd^g]2 | [Acdfa]4 [dfad']4!D.S.! ||O [GBdg]2 [a_bd'e']2 d [A_Be]2 d | %103
 [GBg] [A,_B,E]2 D [G,=B,G]4 |] %104
V:2
!8va(! .[^Gd^e]3 .[Adf]- [Adf]2 .[FAd]2!8va)! | x8 | x8 | x4!8va(! x4!8va)! |: B_B A2 =B_B A2 | %5
 B_BA[Gcfa]- x4 | e_e d2 =e_e d2 | e_ed[dfad']- x4 | B_B A2 =B_B A2 | B_BA[Gcfa]- x4 | x8 | x8 | %12
 B_B A2 =B_B A2 | B_BA[Gcfa]- x4 | e_e d2 =e_e d2 | e_ed[dfad']- x4 | %16
 z [DG_B]2 [DGB]- [DGB] x [_B,DG]2 | [A,DF]2 [A,DF]2 x4 | B_B A2 =fed[d^fad']- |1 x8 :|2 %20
 x4!8va(! x4!8va)! |: (3=FED FE DFED | x8 | x8 | x8 | (3=FED FE DFED | x8 | x8 | x8 | %29
 (3=fed fe dfed | x8 | x8 | x8 | B3 B- B3 A- | A3 A A A2 ^G- | G3 =G- G2 G2 |1 x8 :|2 x8 || %38
 B_B A2 =B_B A2 | B_BA[Gcfa]- x4 | e_e d2 =e_e d2 | e_ed[dfad']- x4 | B_B A2 =B_B A2 | %43
 B_BA[Gcfa]- x4 | x8 | x8 | B_B A2 =B_B A2 | B_BA[Gcfa]- x4 | e_e d2 =e_e d2 | e_ed[dfad']- x4 | %50
 z [DG_B]2 [DGB]- [DGB] x [_B,DG]2 | [A,DF]2 [A,DF]2 x4 | B_B A2 =fed[d^fad']- | %53
 x4!8va(! x4!8va)! ||[K:G] x8 | x8 | x8 | x8 || x8 | x8 | x8 | x8 | x8 | x8 | x8 | x8 | x8 | x8 | %68
 x8 | x8 | x8 | x8 | x8 | x8 | x8 | x8 | x8 | x8 | x8 | x8 | x8 | x8 | x8 | x8 | x8 | x8 | x8 | %87
 x8 | x8 | x4!8va(! x4!8va)! || x8 | x8 | x8 | x8 | x8 | x8 | x8 | x8 | x8 | x8 | x8 | x8 || x8 | %103
 x8 |] %104
V:3
 x8 | .[^G,D^E]3 .[A,DF]- [A,DF]2 .[F,A,D]2 | [_B,,=F,_A,]3 [B,,F,A,]- [B,,F,A,]2 [B,,F,A,]2 | %3
 [A,,E,G,]2 z2 [A,,,A,,]2 [^D,,^D,]2 |: [E,,E,]2 .[G,A,CE]2 A,,,2 .[G,A,CE]2 | %5
 E,,2 .[G,A,CE]2 A,,,2 .[G,A,CE]2 | D,,2 .[F,A,D]2 A,,,2 .[F,A,D]2 | %7
 D,,2 .[F,A,D]2 F,,2 .[F,A,D]2 | E,,2 .[G,A,CE]2 A,,,2 .[G,A,CE]2 | %9
 E,,2 .[G,A,CE]2 A,,,2 .[G,A,CE]2 | z [^G,D^E]2 z [A,DF]2 z [F,A,D]- | %11
 [F,A,D] z [E,^G,B,D]2 z [E,=G,A,C]2 [^D,,^D,] | [E,,E,]2 .[G,A,CE]2 A,,,2 .[G,A,CE]2 | %13
 E,,2 .[G,A,CE]2 A,,,2 .[G,A,CE]2 | D,,2 .[F,A,D]2 A,,,2 .[F,A,D]2 | %15
 D,,2 .[F,A,D]2!8vb(! D,,,2!8vb)! .[F,A,D]2 | x8 | x4 z [F,A,D]3 | %18
 [A,,E,G,]2 .[G,A,CE]G,,- [G,,B,]2 .[G,B,D=F]2 |1 [D,,D,]3 [^D,,^D,]- [D,,D,]2 [D,,D,]2 :|2 %20
 [D,D]2 [A,,A,]2 [D,,D,]3 G,,- |: [G,,D,B,]2 [G,,D,B,]2- [G,,D,B,] [G,,D,B,]2 F,,- | %22
 [F,,A,]2 .[F,A,D]2 [D,,D,]2 [^D,,^D,]2 | [E,,E,]2 .[G,A,CE]2 A,,,2 .[G,A,CE]2 | %24
 D,,2 .[F,A,D]2!8vb(! D,,,2!8vb)! .[F,A,=C]G,,- | %25
 [G,,D,B,]2 [G,,D,B,]2- [G,,D,B,] [G,,D,B,]2 F,,- | [F,,A,]2 .[F,A,D]2 [B,,,B,,]2 .[D,F,B,]2 | %27
 [C,,C,]2 .[^A,CF]2 [C,,C,]2 .[B,C^E]2 | [F,,F,]2 .[^A,CF]E,,- [E,,E,]A,,- [A,,=A,]2 | %29
!8va(! [G,DB]2 [G,DB]2- [G,DB] [G,DB]2 F,- | %30
 [F,A]!8va)!A,,-[A,,A,]F,,- [F,,F,]D,,- [D,,D,][^D,,^D,] | [E,,E,]2 .[G,A,CE]2 A,,,2 .[G,A,CE]2 | %32
 D,,2 .[F,A,D]2!8vb(! D,,,2!8vb)! .[F,A,=C]2 | %33
!8vb(! G,,,2!8vb)! .[G,B,D]2!8vb(! ^G,,,2!8vb)! .[B,D^E]2 | %34
!8vb(! A,,,2!8vb)! .[F,A,D]2 B,,,2 .[F,A,B,^D]2 | E,,2 .[E,^G,B,=D]2 A,,,2 .[=G,A,CE]2 |1 %36
 [D,,D,]2 z [D,F,A,=C]- [D,F,A,C]2 [D,,D,]2 :|2 %37
 [D,,D,]2 [^D,,^D,][D,,D,]- [D,,D,][D,,D,] [D,,D,]2 || [E,,E,]2 .[G,A,CE]2 A,,,2 .[G,A,CE]2 | %39
 E,,2 .[G,A,CE]2 A,,,2 .[G,A,CE]2 | D,,2 .[F,A,D]2 A,,,2 .[F,A,D]2 | %41
 D,,2 .[F,A,D]2 F,,2 .[F,A,D]2 | E,,2 .[G,A,CE]2 A,,,2 .[G,A,CE]2 | %43
 E,,2 .[G,A,CE]2 A,,,2 .[G,A,CE]2 | z [^G,D^E]2 z [A,DF]2 z [F,A,D]- | %45
 [F,A,D] z [E,^G,B,D]2 z [E,=G,A,C]2 [^D,,^D,] | [E,,E,]2 .[G,A,CE]2 A,,,2 .[G,A,CE]2 | %47
 E,,2 .[G,A,CE]2 A,,,2 .[G,A,CE]2 | D,,2 .[F,A,D]2 A,,,2 .[F,A,D]2 | %49
 D,,2 .[F,A,D]2!8vb(! D,,,2!8vb)! .[F,A,D]2 | x8 | x4 z [F,A,D]3 | %52
 [A,,E,G,]2 .[G,A,CE]G,,- [G,,B,]2 .[G,B,D=F]2 | [D,D]2 [A,,A,]2 [D,,D,]4 || %54
[K:G] [^C,^C]3 [=C,=C]- [C,C]2 [B,,B,]2- | [B,,B,] [_B,,_B,]2- [B,,B,] [A,,A,]3 [_A,,_A,]- | %56
 [A,,A,]2 [G,,G,]- [G,,G,]3 [^E,,^E,]2 | [F,,F,]2 [D,,D,]2!8vb(! [D,,,D,,]4!8vb)! || %58
 [G,,,G,,]3 [B,,,B,,]- [B,,,B,,]2 [D,,D,]2- | [D,,D,] [G,,G,]3 [E,,E,]2 [D,,D,]2 | %60
 [A,,,A,,]3 [^C,,^C,]- [C,,C,]2 [E,,E,]2- | [E,,E,] [A,,A,]3 [G,,G,]2 [E,,E,]D,,- | %62
 [D,,F,]2 .[F,A,C]2 A,,,2 .[F,A,C]2 | D,,2 .[F,A,C]2 D,,2 .[F,A,C]2 | %64
 G,,2 .[D,G,B,]2 ^G,,2 .[=F,^G,B,]2 | A,,2 .[E,A,C]2 D,,2 .[F,A,C]2 | %66
 [G,,,G,,]3 [B,,,B,,]- [B,,,B,,]2 [D,,D,]2- | [D,,D,] [G,,G,]3 [E,,E,]2 [D,,D,]D,,- | %68
 [D,,F,]2 .[F,A,D]2 A,,,2 .[F,A,D]2 | D,,2 .[F,A,D]2 F,,2 .[F,A,D]2 | %70
 E,,2 .[G,A,^CE]2 A,,,2 .[G,A,CE]2 | E,,2 .[G,A,^CE]2 A,,,2 .[G,A,CE]2 | %72
 [D,,D,]2 [^G,,^G,][G,,G,]- [G,,G,][G,,G,] [G,,G,]2 | %73
 [A,,A,]2 [D,,D,]2 [D,F,A,C]2!8vb(! [D,,,D,,]2!8vb)! | [G,,,G,,]3 [B,,,B,,]- [B,,,B,,]2 [D,,D,]2- | %75
 [D,,D,] [G,,G,]3 [E,,E,]2 [D,,D,]2 | [A,,,A,,]3 [^C,,^C,]- [C,,C,]2 [E,,E,]2- | %77
 [E,,E,] [A,,A,]3 [G,,G,]2 [E,,E,]D,,- | [D,,F,]2 .[F,A,C]2 A,,,2 .[F,A,C]2 | %79
 D,,2 .[F,A,C]2 [D,,D,]2 [C,,C,]2 | [B,,,B,,]2 [D,,D,][^D,,^D,]- [D,,D,][^E,,^E,] [F,,F,]2 | %81
 [B,,B,]2 [B,,B,]2 [_B,,_B,]2 [A,,A,]2 | [^G,,^G,]2 .[E,G,D]2 [E,,E,]2 .[E,G,D]2 | %83
 [B,,,B,,]2 .[E,^G,D]2 [E,,E,]2 [D,,D,]2 | [^C,,^C,]2 .[G,A,^CE]2 [A,,,A,,]2 .[G,A,CE]2 | %85
 [^C,,^C,]2 .[G,A,^CE]2 [C,,C,]2 .[G,^A,CE]2 | [D,,D,]2 .[D,G,B,]2 [G,,G,]2 [^G,,^G,]2 | %87
 [A,,A,]2 [D,,D,]2 [E,,E,]2 [F,,F,]2 | [G,,G,]D,,-[D,,D,]E,,- [E,,E,]F,,-[F,,F,]G,,- | %89
 [G,,G,]2 [D,,D,]2 [G,,,G,,]4 || [F,,F,]2 [B,,,B,,]2 [^C,,^C,]2 [^D,,^D,]2 | %91
 [G,,G,]2 [F,,F,]2 [^C,,^C,]2 [^D,,^D,]2 | [E,,E,] z2 [F,F] z2 [E,E] z | %93
 z [F,F] z z [E,E] z2 E,,- | [E,,E,]2 [A,,,A,,]2 [B,,,B,,]2 [^C,,^C,]2 | %95
 [F,,F,]2 [E,,E,]2 [B,,,B,,]2 [^C,,^C,]2 | [D,,D,] z2 [E,E] z2 [D,D] z | z [E,E] z2 [D,D]2 [C,C]2 | %98
 [^C,^C]3 [=C,=C]- [C,C]2 [B,,B,]2- | [B,,B,] [_B,,_B,]2- [B,,B,] [A,,A,]3 [_A,,_A,]- | %100
 [A,,A,]2 [G,,G,]- [G,,G,]3 [^E,,^E,]2 | [F,,F,]2 [D,,D,]2!8vb(! [D,,,D,,]4!8vb)! || %102
 [G,,G,]D,,-[D,,D,]E,,- [E,,E,]F,,-[F,,F,]G,,- | [G,,D,G,]D,,-[D,,D,]G,,,- [G,,,G,,]4 |] %104
V:4
!8va(! x8!8va)! | x8 | x8 | x4!8va(! x4!8va)! |: x8 | x8 | x8 | x8 | x8 | x8 | x8 | x8 | x8 | x8 | %14
 x8 | x8 | x8 | x8 | x8 |1 z7 x/ x/- :|2 x4!8va(! x4!8va)! |: x8 | x8 | x8 | x8 | x8 | x8 | x8 | %28
 x8 | x8 | x8 | x8 | x8 | x8 | x8 | x8 |1 x8 :|2 x8 || x8 | x8 | x8 | x8 | x8 | x8 | x8 | x8 | x8 | %47
 x8 | x8 | x8 | x8 | x8 | x8 | x4!8va(! x4!8va)! ||[K:G] x8 | x8 | x8 | x8 || x8 | x8 | x8 | x8 | %62
 x8 | x8 | x8 | x8 | x8 | x8 | x8 | x8 | x8 | x8 | x8 | x8 | x8 | x8 | x8 | x8 | x8 | x8 | x8 | %81
 x8 | x8 | x8 | x8 | x8 | x8 | x8 | x8 | x4!8va(! x4!8va)! || x8 | x8 | x8 | x8 | x8 | x8 | x8 | %97
 x8 | x8 | x8 | x8 | x8 || x8 | x8 |] %104

